client/src/assets/images/icon-malaria-blue.svg

<svg fill="none" height="50" viewBox="0 0 45 50" width="45" xmlns="http://www.w3.org/2000/svg"><path d="m41.0645 39.1813c.4242.0001.8446-.0805 1.2387-.2376l1.5549 3.692c.0301.0721.0741.1376.1295.1926.0555.0551.1213.0987.1936.1283s.1498.0446.228.0442c.0781-.0004.1554-.0162.2274-.0465.0721-.0304.1374-.0746.1923-.1303.0549-.0556.0982-.1215.1276-.194.0294-.0724.0441-.1499.0435-.228-.0007-.0782-.0168-.1555-.0473-.2274l-1.6289-3.868c.5645-.5123.9382-1.2013 1.0595-1.9539.1214-.7527-.0167-1.5242-.3917-2.188-.3749-.6638-.9644-1.1804-1.6716-1.465s-1.4902-.3203-2.2204-.1012c-.6207-2.5525-2.1474-4.5517-4.5018-5.9321-.0435-.0342-.0914-.0622-.1426-.0831-1.3793-.783-3.034-1.359-4.9498-1.7152-.6958-6.8318-8.5617-18.20239-8.9034-18.69314-.007-.00989-.0145-.01979-.0221-.02969-3.0331-3.82756-6.1976-5.887732-9.4057-6.1231071-3.3756-.2468559-5.55019 1.6456471-5.76913 1.8454871-1.19766.99831-1.72938 2.22893-1.58111 3.6583.06302.54281.20369 1.07375.4177 1.57656-1.28556.53686-4.2029 1.9895-5.022057 4.39299-.452735 1.3281-.2046911 2.7177.737105 4.1304.005246.008.010789.0159.016629.0236.056423.0764 1.422543 1.894 4.941973 4.0397 2.89399 1.7644 7.82759 4.0736 15.36789 5.5324l-18.60612 10.9448c-.10007.0589-.18069.1458-.2319.25s-.07076.2211-.05622.3363c.01453.1152.06251.2236.13799.3118.07549.0882.17517.1523.28672.1845 1.64807.4697 3.35409.705 5.06778.699 3.37525 0 6.94845-.8635 10.55215-2.5704.0489-.0232.0969-.0466.1454-.0693l-2.5364 3.7079c-.043.0629-.0735.1334-.0899.2078l-2.1 9.5455c-.0338.1538-.0051.3148.0797.4475.0849.1327.219.2263.3728.2601.1539.0339.3148.0052.4476-.0797.1327-.0848.2262-.2189.2601-.3728l2.075-9.4328 3.65-5.3357c.0249-.0366.0457-.0759.0618-.1171 1.4378-.8205 2.8113-1.749 4.1087-2.7773.1399.1287.2797.2543.4195.3776l-3.5218 4.1749c-.0506.0599-.0887.1293-.1124.204-.0236.0748-.0322.1535-.0252.2315l1.1453 12.7908c.0132.1477.0812.2851.1905.3851.1093.1001.2522.1557.4004.1559.0176 0 .0356-.0008.0537-.0024.1568-.014.3017-.0898.4027-.2107s.1498-.2769.1358-.4338l-1.1233-12.5445 3.3641-3.9881c.6251.5017 1.2802.9647 1.9618 1.3865.0077.0052.0149.011.0231.0159.0045.0029.0099.0048.0141.0075.447.2738.9076.5249 1.38.7522l-2.8076 2.7345c-.0732.0713-.1267.1603-.1555.2584-.0287.098-.0317.2018-.0086.3014l2.4818 10.6909c.0357.1534.1308.2864.2645.3698.1337.0833.295.1101.4484.0744.1534-.0356.2864-.1307.3697-.2644.0834-.1337.1101-.295.0745-.4484l-2.4062-10.3655 2.9258-2.8496.0087.0033c1.6872.6127 3.3455.7961 4.9285.5444.6993-.1108 1.3823-.3076 2.0334-.5858-.1027.4895-.095.9958.0226 1.4819.1177.4862.3423.9399.6575 1.3283.3153.3883.7132.7014 1.1647.9165.4516.215.9455.327 1.4456.3271zm2.1743-3.3621c0 .4301-.1275.8505-.3664 1.2081s-.5785.6363-.9758.8009-.8345.2076-1.2563.1237-.8093-.291-1.1134-.5951-.5112-.6915-.5951-1.1133-.0408-.859.1238-1.2563c.1646-.3974.4433-.737.8009-.9759s.778-.3664 1.208-.3664c.5765.0007 1.1291.23 1.5367.6376.4077.4076.6369.9603.6376 1.5367zm-31.6592-34.63046c.173 0 .3503.00644.5312.02039 2.8513.21865 5.7198 2.12273 8.5264 5.65939.297.42967 6.6571 9.69558 8.3303 16.20138l-19.2269-21.62995c.5988-.16653 1.2175-.25103 1.839-.25121zm-4.40457 1.58309c.00842-.00703.01812-.01564.02613-.02306.40908-.34562.86237-.63521 1.34792-.86113l18.99672 21.37066-.7877-.4572c-.007-.004-.0139-.0079-.0209-.0116-3.5038-1.8944-6.9063-3.9704-10.1937-6.2195-5.2773-3.6463-8.66125-6.84205-9.9572-9.37584-.01064-.02466-.02294-.04857-.03682-.07156-.28253-.53605-.4669-1.11831-.54439-1.71928-.1065-1.0293.27586-1.89013 1.16994-2.63149zm-5.24 12.18017c-.7277-1.0979-.92121-2.1025-.5919-3.0711.67425-1.9828 3.3482-3.2642 4.43074-3.71119 1.54498 2.66369 4.92503 5.80619 10.10333 9.38329 3.3202 2.2709 6.7564 4.3673 10.2946 6.2808l1.1343.6585c-1.0985-.0601-2.1995-.0601-3.298 0-.0107-.0023-.0213-.005-.0323-.0067-8.7242-1.357-14.25708-3.8824-17.36228-5.7616-3.23309-1.9573-4.57387-3.6371-4.67849-3.772zm22.60707 15.1702c-.0261.0229-2.6563 2.3062-6.6166 4.1818-3.3286 1.577-8.23895 3.1446-13.37997 2.1417l18.10027-10.6476c.6594-.077 4.0634-.42 7.5989.2293 1.1743.2051 2.3229.537 3.4256.9898l-.351.1146c-1.2991.4249-2.4062 1.2953-3.1257 2.4574l-1.8435 2.9809c-1.073-.718-2.0792-1.5312-3.0062-2.4299-.1072-.1028-.2491-.1617-.3976-.165-.1486-.0033-.2925.0491-.4042.147zm10.9457 4.4287c-1.9283.2886-3.9988-.1794-6.1234-1.3636l1.8392-2.9732c.572-.9236 1.4519-1.6154 2.4844-1.953l1.4793-.483c2.0284 1.235 3.3065 2.9892 3.8149 5.2495-1.0087.8093-2.2149 1.3351-3.4944 1.5233z" fill="#06b9ff"/></svg>

<svg width="45" height="50" viewBox="0 0 45 50" fill="none" xmlns="http://www.w3.org/2000/svg">
<path d="M41.0645 39.1813C41.4887 39.1814 41.9091 39.1008 42.3032 38.9437L43.8581 42.6357C43.8882 42.7078 43.9322 42.7733 43.9876 42.8283C44.0431 42.8834 44.1089 42.927 44.1812 42.9566C44.2535 42.9862 44.331 43.0012 44.4092 43.0008C44.4873 43.0004 44.5646 42.9846 44.6366 42.9543C44.7087 42.9239 44.774 42.8797 44.8289 42.824C44.8838 42.7684 44.9271 42.7025 44.9565 42.63C44.9859 42.5576 45.0006 42.4801 45 42.402C44.9993 42.3238 44.9832 42.2465 44.9527 42.1746L43.3238 38.3066C43.8883 37.7943 44.262 37.1053 44.3833 36.3527C44.5047 35.6 44.3666 34.8285 43.9916 34.1647C43.6167 33.5009 43.0272 32.9843 42.32 32.6997C41.6128 32.4151 40.8298 32.3794 40.0996 32.5985C39.4789 30.046 37.9522 28.0468 35.5978 26.6664C35.5543 26.6322 35.5064 26.6042 35.4552 26.5833C34.0759 25.8003 32.4212 25.2243 30.5054 24.8681C29.8096 18.0363 21.9437 6.66571 21.602 6.17496C21.595 6.16507 21.5875 6.15517 21.5799 6.14527C18.5468 2.31771 15.3823 0.257538 12.1742 0.0221629C8.7986 -0.224693 6.62401 1.66781 6.40507 1.86765C5.20741 2.86596 4.67569 4.09658 4.82396 5.52595C4.88698 6.06876 5.02765 6.5997 5.24166 7.10251C3.9561 7.63937 1.03876 9.09201 0.219603 11.4955C-0.233132 12.8236 0.0149119 14.2132 0.956708 15.6259C0.961954 15.6339 0.967497 15.6418 0.973337 15.6495C1.02976 15.7259 2.39588 17.5435 5.91531 19.6892C8.8093 21.4536 13.7429 23.7628 21.2832 25.2216L2.67708 36.1664C2.57701 36.2253 2.49639 36.3122 2.44518 36.4164C2.39397 36.5206 2.37442 36.6375 2.38896 36.7527C2.40349 36.8679 2.45147 36.9763 2.52695 37.0645C2.60244 37.1527 2.70212 37.2168 2.81367 37.249C4.46174 37.7187 6.16776 37.954 7.88145 37.948C11.2567 37.948 14.8299 37.0845 18.4336 35.3776C18.4825 35.3544 18.5305 35.331 18.579 35.3083L16.0426 39.0162C15.9996 39.0791 15.9691 39.1496 15.9527 39.224L13.8527 48.7695C13.8189 48.9233 13.8476 49.0843 13.9324 49.217C14.0173 49.3497 14.1514 49.4433 14.3052 49.4771C14.4591 49.511 14.62 49.4823 14.7528 49.3974C14.8855 49.3126 14.979 49.1785 15.0129 49.0246L17.0879 39.5918L20.7379 34.2561C20.7628 34.2195 20.7836 34.1802 20.7997 34.139C22.2375 33.3185 23.611 32.39 24.9084 31.3617C25.0483 31.4904 25.1881 31.616 25.3279 31.7393L21.8061 35.9142C21.7555 35.9741 21.7174 36.0435 21.6937 36.1182C21.6701 36.193 21.6615 36.2717 21.6685 36.3497L22.8138 49.1405C22.827 49.2882 22.895 49.4256 23.0043 49.5256C23.1136 49.6257 23.2565 49.6813 23.4047 49.6815C23.4223 49.6815 23.4403 49.6807 23.4584 49.6791C23.6152 49.6651 23.7601 49.5893 23.8611 49.4684C23.9621 49.3475 24.0109 49.1915 23.9969 49.0346L22.8736 36.4901L26.2377 32.502C26.8628 33.0037 27.5179 33.4667 28.1995 33.8885C28.2072 33.8937 28.2144 33.8995 28.2226 33.9044C28.2271 33.9073 28.2325 33.9092 28.2367 33.9119C28.6837 34.1857 29.1443 34.4368 29.6167 34.6641L26.8091 37.3986C26.7359 37.4699 26.6824 37.5589 26.6536 37.657C26.6249 37.755 26.6219 37.8588 26.645 37.9584L29.1268 48.6493C29.1625 48.8027 29.2576 48.9357 29.3913 49.0191C29.525 49.1024 29.6863 49.1292 29.8397 49.0935C29.9931 49.0579 30.1261 48.9628 30.2094 48.8291C30.2928 48.6954 30.3195 48.5341 30.2839 48.3807L27.8777 38.0152L30.8035 35.1656L30.8122 35.1689C32.4994 35.7816 34.1577 35.965 35.7407 35.7133C36.44 35.6025 37.123 35.4057 37.7741 35.1275C37.6714 35.617 37.6791 36.1233 37.7967 36.6094C37.9144 37.0956 38.139 37.5493 38.4542 37.9377C38.7695 38.326 39.1674 38.6391 39.6189 38.8542C40.0705 39.0692 40.5644 39.1812 41.0645 39.1813ZM43.2388 35.8192C43.2388 36.2493 43.1113 36.6697 42.8724 37.0273C42.6335 37.3849 42.2939 37.6636 41.8966 37.8282C41.4993 37.9928 41.0621 38.0358 40.6403 37.9519C40.2185 37.868 39.831 37.6609 39.5269 37.3568C39.2228 37.0527 39.0157 36.6653 38.9318 36.2435C38.8479 35.8217 38.891 35.3845 39.0556 34.9872C39.2202 34.5898 39.4989 34.2502 39.8565 34.0113C40.2141 33.7724 40.6345 33.6449 41.0645 33.6449C41.641 33.6456 42.1936 33.8749 42.6012 34.2825C43.0089 34.6901 43.2381 35.2428 43.2388 35.8192ZM11.5796 1.18874C11.7526 1.18874 11.9299 1.19518 12.1108 1.20913C14.9621 1.42778 17.8306 3.33186 20.6372 6.86852C20.9342 7.29819 27.2943 16.5641 28.9675 23.0699L9.7406 1.43995C10.3394 1.27342 10.9581 1.18892 11.5796 1.18874ZM7.17503 2.77183C7.18345 2.7648 7.19315 2.75619 7.20116 2.74877C7.61024 2.40315 8.06353 2.11356 8.54908 1.88764L27.5458 23.2583L26.7581 22.8011C26.7511 22.7971 26.7442 22.7932 26.7372 22.7895C23.2334 20.8951 19.8309 18.8191 16.5435 16.57C11.2662 12.9237 7.88225 9.72795 6.5863 7.19416C6.57566 7.1695 6.56336 7.14559 6.54948 7.1226C6.26695 6.58655 6.08258 6.00429 6.00509 5.40332C5.89859 4.37402 6.28095 3.51319 7.17503 2.77183ZM1.93503 14.952C1.20733 13.8541 1.01382 12.8495 1.34313 11.8809C2.01738 9.8981 4.69133 8.6167 5.77387 8.16971C7.31885 10.8334 10.6989 13.9759 15.8772 17.553C19.1974 19.8239 22.6336 21.9203 26.1718 23.8338L27.3061 24.4923C26.2076 24.4322 25.1066 24.4322 24.0081 24.4923C23.9974 24.49 23.9868 24.4873 23.9758 24.4856C15.2516 23.1286 9.71872 20.6032 6.61352 18.724C3.38043 16.7667 2.03965 15.0869 1.93503 14.952ZM24.5421 30.1222C24.516 30.1451 21.8858 32.4284 17.9255 34.304C14.5969 35.881 9.68655 37.4486 4.54553 36.4457L22.6458 25.7981C23.3052 25.7211 26.7092 25.3781 30.2447 26.0274C31.419 26.2325 32.5676 26.5644 33.6703 27.0172L33.3193 27.1318C32.0202 27.5567 30.9131 28.4271 30.1936 29.5892L28.3501 32.5701C27.2771 31.8521 26.2709 31.0389 25.3439 30.1402C25.2367 30.0374 25.0948 29.9785 24.9463 29.9752C24.7977 29.9719 24.6538 30.0243 24.5421 30.1222ZM35.4878 34.5509C33.5595 34.8395 31.489 34.3715 29.3644 33.1873L31.2036 30.2141C31.7756 29.2905 32.6555 28.5987 33.688 28.2611L35.1673 27.7781C37.1957 29.0131 38.4738 30.7673 38.9822 33.0276C37.9735 33.8369 36.7673 34.3627 35.4878 34.5509Z" fill="#06b9ff"/>
</svg>
